X: 1
T: Kiss Your Partner
T: Lass of Ballintra, The
M: 4/4
L: 1/8
K:G
g/f/e|d2 Bd efge|dBGB AGEG|d2 Bd efgb|afdf g2 g/f/e|
|d2 Bd efge|dBGB AGEG|d2 Bd efgb|afdf g2 d/e/f||
|g2 gf gbag|fdad bdad|g2 gf gbag|fdef g2 d/e/f|
g2 gf gbag|fdad bdad|edeg fdfb|afdf g2 g/f/e||
